X:383
T: "Die Brombeeren"
N: Z1063
O: Europa, Mitteleuropa, Deutschland, Oberrhein
R: Romanze, Ballade, Jaeger - Lied
M: 4/4
L: 1/8
K: D
DE | F2FED2EF | G2GFE2
FG | A3GF2ED | E4z2
DE | F2FED2EF | G4E4
C4A,4 | A4F2
F2 | AGG2E2G2 | F4z2

